svgs/google_docs.svg

<svg width="192" height="192" viewBox="0 0 192 192" fill="none" xmlns="http://www.w3.org/2000/svg"><path d="M68 89h56m-56 24h56m-56 24h36" stroke="#000" stroke-width="12" stroke-linecap="round" stroke-linejoin="round"/><path fill-rule="evenodd" clip-rule="evenodd" d="M52 28a2 2 0 0 0-2 2v132a2 2 0 0 0 2 2h88a2 2 0 0 0 2-2V62h-28a6 6 0 0 1-6-6V28H52Zm68 8.485L133.515 50H120V36.485ZM38 30c0-7.732 6.268-14 14-14h62c1.591 0 3.117.632 4.243 1.757l34 34A6 6 0 0 1 154 56v106c0 7.732-6.268 14-14 14H52c-7.732 0-14-6.268-14-14V30Z" fill="#000"/></svg>

<?xml version="1.0" encoding="UTF-8" standalone="no"?><svg xmlns:android="http://schemas.android.com/apk/res/android" height="192" width="192" xmlns="http://www.w3.org/2000/svg">
  <path d="M68,89H124" fill="#000000" fill-opacity="0.0" stroke="#000000" stroke-linecap="round" stroke-linejoin="round" stroke-width="12"/>
  <path d="M68,113H124" fill="#000000" fill-opacity="0.0" stroke="#000000" stroke-linecap="round" stroke-linejoin="round" stroke-width="12"/>
  <path d="M68,137H104" fill="#000000" fill-opacity="0.0" stroke="#000000" stroke-linecap="round" stroke-linejoin="round" stroke-width="12"/>
  <path d="M52,28C50.895,28 50,28.895 50,30V162C50,163.105 50.895,164 52,164H140C141.105,164 142,163.105 142,162V62H114C110.686,62 108,59.314 108,56V28H52ZM120,36.485L133.515,50H120V36.485ZM38,30C38,22.268 44.268,16 52,16H114C115.591,16 117.117,16.632 118.243,17.757L152.243,51.757C153.368,52.883 154,54.409 154,56V162C154,169.732 147.732,176 140,176H52C44.268,176 38,169.732 38,162V30Z" fill="#000000" fill-rule="evenOdd"/>
</svg>
